X:345
T: Bowna
S: "Music of Ireland - The Big Session" (DJ Taylor)
Z: B.Black
L: 1/8
M: 12/8
R: slide
K: G
d2 B BAB c2 B A2 B|c2 c cBc ged B2 c|\
d3 BAB cBc A2 B|cBc e2 d G6 :|
g3 gfg a2 g fed|e3 ede f2 e def|\
g3 gfg a2 g f3|efg a2 g fef g6 :|
